X:389
T:The Geud Man of Ballangigh
T:Hunt the Squirrel
C:John Young, 1709
M:6/8
R:Jig
L:1/8
S:Colin Hume's website,  colinhume.com  - chords can also be printed below the stave.
Q:3/8=116
K:A
P:A
%%MIDI bassprog 45      % Pizzicato Strings
%%MIDI program 68       % Oboe
%%MIDI chordprog 45     % Pizzicato Strings
V:1
|: "A"Ae2 e2f | "/"e3 c3 | "D"ABc "E"B2A | "D"ABc "E7"B2A |\
"A"Ae2 e2f | "/"e3 c3 | "D"ABc "E7"B2A | "A"A3- A3 :|
V:2 bass octave=-2
%%MIDI program 42       % Cello
|: a3 g3 | f3 e3 | d3 e3 | f3 g3 |\
a3 g3 | f3 e3 | f3 g3 | a3 A3 :|
P:B
V:1
|: "D"d2e fed | "/C#"d2e fed | "Bm"d2e f2g | "F#m"a3- a2g/f/ |\
"A"ec2 ec2 | "C#m"ec2 e3 | "D"ABc "E7"B2A | "A"A3- A3 :|
V:2
|: d3 d2d | c3 c2c | B2b a2g | f3 f2g |\
a3 A2B | c3 cBc | d3 e3 | aec A3 :|

